teeny/outline/cplusplus.svg

<svg width="15" height="15" viewBox="0 0 15 15" fill="none" xmlns="http://www.w3.org/2000/svg">
<path d="M9.5 9.5C8.85971 10.1403 7.99129 10.5 7.08579 10.5H6.5C4.84315 10.5 3.5 9.15685 3.5 7.5C3.5 5.84315 4.84315 4.5 6.5 4.5H7.08579C7.99129 4.5 8.85971 4.85971 9.5 5.5M7.5 6V9M6 7.5H12M10.5 6V9M1.5 10.5V4.5L7.5 1L13.5 4.5V10.5L7.5 14L1.5 10.5Z" stroke="black"/>
</svg>

<svg viewBox="0 0 15 15" xmlns="http://www.w3.org/2000/svg"><path fill="none" stroke="#000" d="M9.5 9.5c-.65.64-1.51 1-2.42 1h-.59c-1.66 0-3-1.35-3-3 0-1.66 1.34-3 3-3h.58c.9 0 1.77.35 2.41 1m-2 .5v3m-1.5-1.5h6M10.48 6v3m-9 1.5v-6l6-3.5 6 3.5v6l-6 3.5 -6-3.5Z"/></svg>
